src/images/Icons/twitter.svg

<svg id="Layer_1" data-name="Layer 1" xmlns="http://www.w3.org/2000/svg" viewBox="0 0 64 64">
  <title>twitter</title>
  <path d="M64,12.1a27.91,27.91,0,0,1-7.5,2.1,13.22,13.22,0,0,0,5.8-7.3A28,28,0,0,1,54,10.1,13.68,13.68,0,0,0,44.3,6,13.14,13.14,0,0,0,31.2,19.1a15.26,15.26,0,0,0,.3,3A37,37,0,0,1,4.5,8.4,13.3,13.3,0,0,0,2.7,15,13,13,0,0,0,8.5,25.9a13.33,13.33,0,0,1-5.9-1.6v.2A13.11,13.11,0,0,0,13.1,37.4a13.45,13.45,0,0,1-3.5.5,21.05,21.05,0,0,1-2.5-.2,13.16,13.16,0,0,0,12.3,9.1A26.56,26.56,0,0,1,3.1,52.4,30.28,30.28,0,0,1,0,52.2,38.1,38.1,0,0,0,20.1,58c24.1,0,37.4-20,37.4-37.4V18.9A26.36,26.36,0,0,0,64,12.1Z" fill="#8a8a8a"/>
</svg>

<?xml version="1.0" encoding="utf-8"?>
<!-- Generator: Adobe Illustrator 22.0.1, SVG Export Plug-In . SVG Version: 6.00 Build 0)  -->
<svg version="1.1" id="Layer_1" xmlns="http://www.w3.org/2000/svg" xmlns:xlink="http://www.w3.org/1999/xlink" x="0px" y="0px"
	 viewBox="0 0 64 64" enable-background="new 0 0 64 64" xml:space="preserve">
<path fill="#8A8A8A" d="M64,12.1c-2.4,1-4.9,1.8-7.5,2.1c2.7-1.6,4.8-4.2,5.8-7.3c-2.6,1.5-5.4,2.6-8.3,3.2C51.5,7.6,48.1,6,44.3,6
	c-7.2,0-13.1,5.9-13.1,13.1c0,1,0.1,2,0.3,3C20.6,21.6,10.9,16.3,4.5,8.4c-1.1,1.9-1.8,4.2-1.8,6.6c0,4.6,2.3,8.6,5.8,10.9
	c-2.1-0.1-4.1-0.6-5.9-1.6v0.2c0,6.4,4.5,11.7,10.5,12.9c-1.1,0.3-2.3,0.5-3.5,0.5c-0.8,0-1.7-0.1-2.5-0.2c1.7,5.2,6.5,9,12.3,9.1
	c-4.5,3.5-10.2,5.6-16.3,5.6c-1.1,0-2.1-0.1-3.1-0.2C5.8,55.8,12.7,58,20.1,58c24.1,0,37.4-20,37.4-37.4c0-0.6,0-1.1,0-1.7
	C60,17.1,62.2,14.8,64,12.1L64,12.1z"/>
</svg>
